icon/fa/crutch.svg

<svg xmlns="http://www.w3.org/2000/svg" viewBox="0 0 512 512"><!--! Font Awesome Free 6.1.2 by @fontawesome - https://fontawesome.com License - https://fontawesome.com/license/free (Icons: CC BY 4.0, Fonts: SIL OFL 1.1, Code: MIT License) Copyright 2022 Fonticons, Inc.--><path d="M502.6 168.1 343 8.6C330.46-3.94 310.15-4 297.54 8.474c-12.68 12.54-12.73 33.1-.126 45.71l159.6 159.5c12.6 12.59 33.03 12.57 45.59-.062C515.1 201.9 515.1 181.5 502.6 168.1zm-168.2 77.3-67.88-67.87 55.13-55.12-45.25-45.25L166.7 186.8c-12.6 12.8-21.5 28.8-25.6 46.4l-27.8 120.2L4.7 462c-6.25 6.25-6.25 16.37 0 22.62l22.63 22.62c6.25 6.25 16.38 6.25 22.63 0l108.6-108.6 120.3-27.75c17.5-4.125 33.63-13 46.38-25.62l109.6-109.7-45.25-45.25-55.19 55.08zm-54.5 54.7c-4.2 4.1-9.6 7.1-15.5 8.5l-79.25 18.25 18.25-79.25c1.375-5.875 4.375-11.25 8.5-15.5l9.375-9.25 67.88 67.87-9.255 9.38z"/></svg>

<svg xmlns="http://www.w3.org/2000/svg" viewBox="0 0 512 512" height="1em" width="1em">
<!--! Font Awesome Free 6.1.2 by @fontawesome - https://fontawesome.com License - https://fontawesome.com/license/free (Icons: CC BY 4.0, Fonts: SIL OFL 1.1, Code: MIT License) Copyright 2022 Fonticons, Inc.-->
  <path d="M502.6 168.1l-159.6-159.5c-12.54-12.54-32.85-12.6-45.46-.1256c-12.68 12.54-12.73 33.1-.1256 45.71l159.6 159.5c12.6 12.59 33.03 12.57 45.59-.0628C515.1 201.9 515.1 181.5 502.6 168.1zM334.4 245.4l-67.88-67.87l55.13-55.12l-45.25-45.25L166.7 186.8C154.1 199.6 145.2 215.6 141.1 233.2L113.3 353.4l-108.6 108.6c-6.25 6.25-6.25 16.37 0 22.62l22.63 22.62c6.25 6.25 16.38 6.25 22.63 0l108.6-108.6l120.3-27.75c17.5-4.125 33.63-13 46.38-25.62l109.6-109.7l-45.25-45.25L334.4 245.4zM279.9 300.1C275.7 304.2 270.3 307.2 264.4 308.6l-79.25 18.25l18.25-79.25c1.375-5.875 4.375-11.25 8.5-15.5l9.375-9.25l67.88 67.87L279.9 300.1z"/>
</svg>
